dist/svgs/crypto-icons/icons/qcn.svg

<?xml version="1.0" encoding="UTF-8" standalone="yes"?>
<svg xmlns="http://www.w3.org/2000/svg" xmlns:xlink="http://www.w3.org/1999/xlink" width="510.66666666666663px" height="502.66666666666663px" viewBox="0 0 383 377" version="1.1">
  <g id="surface1">
    <path style=" stroke:none;fill-rule:evenodd;fill:rgb(0%,0%,0%);fill-opacity:1;" d="M 372.175781 143.757812 L 244.148438 143.757812 L 243.148438 140.765625 L 241.355469 136.570312 C 238.730469 128.152344 236.003906 119.765625 233.179688 111.410156 C 230.339844 103.015625 227.480469 94.628906 224.605469 86.25 C 221.148438 75.070312 217.492188 62.222656 213.636719 47.710938 C 209.78125 33.203125 205.992188 20.355469 202.269531 9.171875 C 201.738281 6.511719 200.472656 4.382812 198.480469 2.785156 C 196.484375 1.1875 194.160156 0.386719 191.5 0.386719 C 188.839844 0.386719 186.515625 1.1875 184.519531 2.785156 C 182.527344 4.382812 181.394531 6.378906 181.128906 8.773438 L 180.730469 9.171875 C 177.007812 20.355469 173.285156 33.269531 169.5625 47.910156 C 165.839844 62.554688 162.117188 75.46875 158.394531 86.648438 L 144.4375 128.582031 C 143.371094 131.246094 142.441406 133.707031 141.644531 135.972656 C 140.847656 138.234375 140.050781 140.699219 139.25 143.359375 L 10.824219 143.359375 C 5.238281 143.359375 1.78125 146.554688 0.453125 152.945312 C -0.875 159.335938 0.71875 163.992188 5.238281 166.921875 C 21.460938 177.839844 37.679688 188.6875 53.898438 199.46875 C 70.117188 210.253906 86.335938 220.96875 102.558594 231.621094 C 93.78125 253.449219 85.074219 274.085938 76.433594 293.519531 C 67.792969 312.957031 59.082031 333.855469 50.308594 356.21875 C 48.449219 361.28125 49.246094 366.269531 52.703125 371.195312 C 56.160156 376.121094 60.414062 376.722656 65.464844 372.992188 L 190.304688 281.140625 C 192.960938 282.472656 195.355469 283.800781 197.484375 285.132812 C 199.609375 286.464844 201.605469 287.929688 203.464844 289.527344 L 203.066406 289.128906 L 317.933594 374.589844 C 322.984375 378.320312 327.242188 377.71875 330.695312 372.792969 C 334.152344 367.867188 334.953125 362.875 333.089844 357.816406 C 328.570312 346.371094 324.183594 335.453125 319.929688 325.070312 C 315.476562 314.847656 311.089844 304.597656 306.765625 294.320312 C 302.492188 284.152344 298.101562 274.035156 293.605469 263.96875 C 289.257812 253.355469 285.003906 242.703125 280.839844 232.019531 C 297.03125 221.390625 313.117188 210.605469 329.101562 199.671875 C 345.175781 188.671875 361.398438 177.890625 377.761719 167.320312 C 382.28125 164.125 383.875 159.402344 382.546875 153.144531 C 381.21875 146.886719 377.761719 143.757812 372.175781 143.757812 Z M 246.140625 147.753906 L 246.140625 148.152344 Z M 136.859375 149.75 C 136.59375 150.546875 136.460938 150.882812 136.460938 150.75 C 136.460938 150.613281 136.59375 150.28125 136.859375 149.75 Z M 197.082031 255.179688 C 196.289062 254.648438 195.414062 254.246094 194.492188 253.984375 C 193.5625 253.71875 192.5625 253.585938 191.5 253.585938 C 190.4375 253.585938 189.4375 253.71875 188.507812 253.984375 C 187.585938 254.246094 186.710938 254.648438 185.917969 255.179688 L 85.40625 329.0625 C 92.054688 313.089844 98.769531 297.449219 105.546875 282.136719 C 112.328125 266.828125 119.042969 250.523438 125.691406 233.21875 C 126.222656 232.417969 126.621094 231.484375 126.886719 230.421875 C 127.152344 229.355469 127.285156 228.292969 127.285156 227.226562 C 127.285156 225.097656 126.753906 223.097656 125.691406 221.234375 C 124.628906 219.371094 123.296875 217.773438 121.703125 216.445312 C 97.945312 200.675781 74.148438 184.964844 50.308594 169.320312 L 146.03125 169.320312 C 148.691406 169.320312 150.949219 166.65625 152.8125 161.332031 C 154.671875 156.007812 156.003906 152.011719 156.800781 149.351562 C 162.648438 132.3125 168.433594 115.203125 174.148438 98.03125 C 179.867188 80.859375 185.515625 63.085938 191.101562 44.71875 C 196.949219 63.085938 202.734375 80.859375 208.449219 98.03125 C 214.167969 115.203125 219.949219 132.3125 225.800781 149.351562 C 226.597656 152.011719 227.925781 156.007812 229.789062 161.332031 C 231.648438 166.65625 233.910156 169.320312 236.570312 169.320312 L 332.292969 169.320312 L 261.296875 216.445312 C 259.703125 217.507812 258.371094 218.90625 257.308594 220.636719 C 256.246094 222.367188 255.714844 224.296875 255.714844 226.425781 C 255.714844 226.960938 255.78125 227.558594 255.914062 228.226562 C 256.046875 228.890625 256.246094 229.488281 256.511719 230.023438 C 256.511719 230.554688 256.578125 231.085938 256.710938 231.621094 C 256.851562 232.171875 257.050781 232.707031 257.308594 233.21875 C 263.957031 250.789062 270.671875 267.296875 277.453125 282.738281 C 284.230469 298.179688 290.945312 313.886719 297.59375 329.863281 Z M 197.082031 255.179688 "/>
  </g>
</svg>

<svg xmlns="http://www.w3.org/2000/svg" viewBox="0 0 383 377"><path fill-rule="evenodd" d="M372.176 143.758H244.148l-1-2.992-1.793-4.196a1117.442 1117.442 0 00-8.175-25.16 6146.56 6146.56 0 00-8.575-25.16c-3.457-11.18-7.113-24.027-10.968-38.54-3.856-14.507-7.645-27.355-11.367-38.538-.532-2.66-1.797-4.79-3.79-6.387-1.996-1.598-4.32-2.398-6.98-2.398s-4.984.8-6.98 2.398c-1.993 1.598-3.125 3.594-3.391 5.988l-.399.399c-3.722 11.183-7.445 24.098-11.167 38.738-3.723 14.645-7.446 27.559-11.168 38.738l-13.958 41.934a186.638 186.638 0 00-2.792 7.39 168.482 168.482 0 00-2.395 7.387H10.824c-5.586 0-9.043 3.196-10.37 9.586-1.329 6.39.265 11.047 4.784 13.977a10248.264 10248.264 0 0048.66 32.547c16.22 10.785 32.438 21.5 48.66 32.152-8.777 21.828-17.484 42.465-26.124 61.899-8.641 19.437-17.352 40.335-26.125 62.699-1.86 5.062-1.063 10.05 2.394 14.976s7.711 5.528 12.762 1.797l124.84-91.851c2.656 1.332 5.05 2.66 7.18 3.992a49.51 49.51 0 015.98 4.394l-.399-.398 114.868 85.46c5.05 3.731 9.308 3.13 12.761-1.796 3.457-4.926 4.258-9.918 2.395-14.977a2771.195 2771.195 0 00-13.16-32.746 2663.452 2663.452 0 01-13.164-30.75 1490.97 1490.97 0 00-13.16-30.351 2007.233 2007.233 0 01-12.766-31.95 3054.63 3054.63 0 0048.262-32.347 2198.11 2198.11 0 0148.66-32.352c4.52-3.195 6.113-7.918 4.785-14.175-1.328-6.258-4.785-9.387-10.371-9.387zm-126.035 3.996v.398zm-109.282 1.996c-.265.797-.398 1.133-.398 1 0-.137.133-.469.398-1zm60.223 105.43a9.134 9.134 0 00-2.59-1.196c-.93-.265-1.93-.398-2.992-.398-1.063 0-2.063.133-2.992.398a9.134 9.134 0 00-2.59 1.196L85.406 329.062a2294.431 2294.431 0 0120.14-46.925c6.782-15.309 13.497-31.614 20.145-48.918.532-.801.93-1.735 1.196-2.797.265-1.067.398-2.129.398-3.195 0-2.13-.531-4.13-1.594-5.993a17.386 17.386 0 00-3.988-4.789A16315.265 16315.265 0 0050.31 169.32h95.722c2.66 0 4.918-2.664 6.781-7.988 1.86-5.324 3.192-9.32 3.989-11.98a5810.785 5810.785 0 0017.347-51.32 2133.864 2133.864 0 0016.954-53.313 4300.562 4300.562 0 0017.347 53.312 5810.89 5810.89 0 0017.352 51.32c.797 2.66 2.125 6.657 3.988 11.981 1.86 5.324 4.121 7.988 6.781 7.988h95.723l-70.996 47.125c-1.594 1.063-2.926 2.461-3.988 4.192-1.063 1.73-1.594 3.66-1.594 5.789 0 .535.066 1.133.2 1.8.132.665.331 1.262.597 1.797 0 .532.066 1.063.199 1.598.14.55.34 1.086.598 1.598 6.648 17.57 13.363 34.078 20.144 49.52a2662.171 2662.171 0 0120.14 47.124zm0 0"/></svg>
